X:38
T: Jiu shehui li xifu ku
N: C0050
O: China, Ningxia, Yinchuan
S: I, 182, 2)]
N: ]
R: Shange, Xintianyou. Fun? ku]
M: 2/4
L: 1/16
K: D
e2eee2d2 | B8 |
A3Be4 | e4d2B2 | e2B2e2B2 | A8 |
B2B4e2 | B4A2F2 | A2AAA2F2 | E8

